X:114
T:El gato Monts
R:Paso doble
C:
%%continueall 1
Z:Transcrit et/ou corrig par Michel BELLON - 2005-07-15
Z:Pour toute observation mailto:galouvielle@free.fr
M:2/4
L:1/8
K:Bb
dc/d/ e2- | ed/c/ BA | G^F/G/ A2- | AA/B/ cd | BG/A/ Bc | AB GA | dd/d/ dd | dd/d/ dd | dd/d/ d(3d/e/d/ | c(3c/d/c/ B(3B/c/B/ |
Ad/d/ dd | dd/d/ dd | dd/d/ d(3d/e/d/ | c(3c/d/c/ B(3B/c/B/ | Ad zd | zd zd | A(3B/A/G/ A2 - | A(cde) | (3e/f/e/ d3- | d4 | {e}d c3- | cA {c}BG |
(^F/G/) A3- | A4 | A(3B/A/G/ A2- | Ac de | (3e/f/e/ d3- | d4 | dc/=B/ c2- | c=Bcd | (3c/d/c/ B3- | B4 | AG/^F/ G2 | G^FGA |1 (3^F/G/F/d zd/d/ |
g2- gd/d/ |(3d=Bd (3dBd | g2- g>g | d>d =B>B | G4 :|2 (3^F/G/F/ d3 | zd/d/ dd | dd/d/ d(3d/e/d/ | c(3c/d/c/ B(3B/c/B/ | Ad/d/ dd | dd/d/ dd |
dd/d/ d(3d/e/d/ | c(3c/d/c/ B(3B/c/B/ | Ad/d/ dd/d/ | dd/d/ dd/d/ | d2z2 |: d2^FA | c2e2 | d4- | d4 | d2^FA | ce2f/e/ | d4- | d4 |1 ef2e |
dc ec | dd2d | ed cB | cc2d | BB2c | Az dz | g2z2 :|2 ef2e | dc ed | (3c/d/c/ B3- | B4 | BA cB | (3A/B/A/ G3 | G4 |
AA/B/ c2- | cc/d/ e(3e/f/e/ | d4- | d4 | d^F/G/ A2 |AB/c/ BA | Gz ^Fz | Gz |]
%%footer $D   Galouvielle-MBe 2005 \nPolka France
